;FLAVOR:Marlin
;TIME:7018
;Filament used: 4.16816m
;Layer height: 0.2
;MINX:34.666
;MINY:60.793
;MINZ:0.2
;MAXX:178.558
;MAXY:167.052
;MAXZ:3
;Generated with Cura_SteamEngine 4.10.0
M140 S60
M105
M190 S60
M104 S210
M105
M109 S210
M82 ;absolute extrusion mode
; Ender 3 Custom Start G-code
G92 E0 ; Reset Extruder
G28 ; Home all axes
M420 S1 ; Load Saved Mesh
G1 Z2.0 F3000 ; Move Z Axis up little to prevent scratching of Heat Bed
G1 X0.1 Y20 Z0.3 F5000.0 ; Move to start position
G1 X0.1 Y200.0 Z0.3 F1500.0 E15 ; Draw the first line
G1 X0.4 Y200.0 Z0.3 F5000.0 ; Move to side a little
G1 X0.4 Y20 Z0.3 F1500.0 E30 ; Draw the second line
G92 E0 ; Reset Extruder
G1 Z2.0 F3000 ; Move Z Axis up little to prevent scratching of Heat Bed
G1 X5 Y20 Z0.3 F5000.0 ; Move over to prevent blob squish
G92 E0
G92 E0
G1 F1800 E-8
;LAYER_COUNT:15
;LAYER:0
M107
M204 S500
M205 X8 Y8
G0 F7500 X43.131 Y63.477 Z0.2
;TYPE:SKIRT
G1 F1800 E0
G1 F1500 X43.223 Y63.415 E0.00332
G1 X43.683 Y63.121 E0.01966
G1 X43.885 Y62.999 E0.02673
G1 X44.406 Y62.703 E0.04466
G1 X44.594 Y62.603 E0.05104
G1 X45.133 Y62.336 E0.06904
G1 X45.532 Y62.151 E0.08221
G1 X46.026 Y61.936 E0.09834
G1 X46.983 Y61.592 E0.12878
G1 X47.473 Y61.441 E0.14413
G1 X48.19 Y61.246 E0.16637
G1 X48.657 Y61.136 E0.18073
G1 X49.578 Y60.96 E0.2088
G1 X50.159 Y60.89 E0.22632
G1 X50.642 Y60.845 E0.24084
G1 X51.448 Y60.8 E0.265
G1 X51.808 Y60.793 E0.27578
G1 X52.547 Y60.804 E0.2979
G1 X52.903 Y60.821 E0.30857
G1 X53.67 Y60.884 E0.33161
G1 X53.949 Y60.917 E0.34002
G1 X54.683 Y61.029 E0.36224
G1 X55.222 Y61.13 E0.37866
G1 X56.386 Y61.415 E0.41453
G1 X57.729 Y61.822 E0.45654
G1 X57.914 Y61.869 E0.46225
G1 X59.653 Y62.386 E0.51656
G1 X62.113 Y63.041 E0.59276
G1 X64.518 Y63.61 E0.66674
G1 X67.034 Y64.131 E0.74365
G1 X69.466 Y64.561 E0.81758
G1 X71.974 Y64.933 E0.89348
G1 X74.452 Y65.229 E0.96818
G1 X76.98 Y65.46 E1.04417
G1 X79.483 Y65.616 E1.11924
G1 X82.064 Y65.705 E1.19655
G1 X83.795 Y65.722 E1.24837
G1 X132.649 Y65.723 E2.71077
G1 X135.257 Y65.686 E2.78884
G1 X137.779 Y65.579 E2.86441
G1 X140.273 Y65.402 E2.93925
G1 X142.773 Y65.154 E3.01445
G1 X145.284 Y64.833 E3.09023
G1 X147.745 Y64.447 E3.1648
G1 X150.252 Y63.981 E3.24113
G1 X152.708 Y63.452 E3.31633
G1 X155.113 Y62.864 E3.39044
G1 X157.598 Y62.179 E3.4676
G1 X158.294 Y61.97 E3.48936
G1 X158.924 Y61.801 E3.50888
G1 X159.427 Y61.682 E3.52436
G1 X160.311 Y61.511 E3.55131
G1 X160.377 Y61.501 E3.55331
G1 X161.05 Y61.42 E3.5736
G1 X161.522 Y61.378 E3.58778
G1 X162.264 Y61.337 E3.61003
G1 X162.641 Y61.329 E3.62131
G1 X163.397 Y61.339 E3.64395
G1 X163.817 Y61.359 E3.65653
G1 X164.439 Y61.407 E3.67521
G1 X165.385 Y61.543 E3.70382
G1 X165.851 Y61.631 E3.71801
G1 X166.657 Y61.815 E3.74276
G1 X167.187 Y61.957 E3.75918
G1 X168.364 Y62.345 E3.79628
G1 X168.682 Y62.47 E3.80651
G1 X169.253 Y62.713 E3.82509
G1 X169.34 Y62.753 E3.82795
G1 X169.719 Y62.936 E3.84055
G1 X170.08 Y63.119 E3.85267
G1 X170.363 Y63.267 E3.86223
G1 X170.488 Y63.335 E3.86649
G1 X171.527 Y63.978 E3.90306
G1 X172.037 Y64.334 E3.92168
G1 X172.653 Y64.797 E3.94475
G1 X172.705 Y64.839 E3.94675
G1 X173.275 Y65.333 E3.96933
G1 X173.747 Y65.771 E3.9886
G1 X174.407 Y66.438 E4.01669
G1 X174.8 Y66.894 E4.03471
G1 X175.209 Y67.397 E4.05412
G1 X175.558 Y67.85 E4.07123
G1 X176.11 Y68.675 E4.10095
G1 X176.419 Y69.185 E4.1188
G1 X176.763 Y69.797 E4.13981
G1 X176.799 Y69.866 E4.14214
G1 X177.159 Y70.623 E4.16723
G1 X177.392 Y71.167 E4.18495
G1 X177.716 Y72.019 E4.21223
G1 X177.755 Y72.136 E4.21593
G1 X177.938 Y72.746 E4.23499
G1 X178.075 Y73.253 E4.25071
G1 X178.287 Y74.203 E4.27985
G1 X178.329 Y74.44 E4.28705
G1 X178.414 Y74.999 E4.30398
G1 X178.453 Y75.312 E4.31342
G1 X178.506 Y75.853 E4.32969
G1 X178.521 Y76.054 E4.33573
G1 X178.548 Y76.585 E4.35164
G1 X178.554 Y76.814 E4.3585
G1 X178.558 Y77.211 E4.37038
G1 X178.545 Y77.755 E4.38667
G1 X178.534 Y77.977 E4.39333
G1 X178.512 Y78.313 E4.4034
G1 X178.501 Y78.45 E4.40752
G1 X178.41 Y79.228 E4.43097
G1 X178.333 Y79.733 E4.44626
G1 X178.197 Y80.461 E4.46843
G1 X178.161 Y80.623 E4.47339
G1 X177.961 Y81.39 E4.49712
G1 X177.797 Y81.937 E4.51422
G1 X177.073 Y84.478 E4.59331
G1 X176.463 Y86.882 E4.66755
G1 X175.904 Y89.364 E4.74371
G1 X175.422 Y91.841 E4.81924
G1 X175.012 Y94.314 E4.89428
G1 X174.67 Y96.813 E4.96978
G1 X174.399 Y99.316 E5.04515
G1 X174.203 Y101.788 E5.11938
G1 X174.072 Y104.329 E5.19554
G1 X174.01 Y107.714 E5.29688
G1 X174.009 Y124.363 E5.79526
G1 X174.046 Y126.972 E5.87336
G1 X174.152 Y129.47 E5.9482
G1 X174.33 Y131.999 E6.0241
G1 X174.579 Y134.498 E6.09927
G1 X174.899 Y136.998 E6.17472
G1 X175.289 Y139.486 E6.2501
G1 X175.743 Y141.933 E6.3246
G1 X176.279 Y144.425 E6.4009
G1 X176.83 Y146.69 E6.47068
G1 X176.985 Y147.297 E6.48943
G1 X177.117 Y147.879 E6.5073
G1 X177.207 Y148.334 E6.52118
G1 X177.327 Y149.073 E6.54359
G1 X177.378 Y149.472 E6.55563
G1 X177.45 Y150.253 E6.57911
G1 X177.474 Y150.682 E6.59197
G1 X177.491 Y151.388 E6.61311
G1 X177.49 Y151.508 E6.61671
G1 X177.451 Y152.343 E6.64173
G1 X177.406 Y152.875 E6.65771
G1 X177.347 Y153.418 E6.67406
G1 X177.156 Y154.479 E6.70633
G1 X177.045 Y154.961 E6.72114
G1 X176.851 Y155.689 E6.74369
G1 X176.697 Y156.196 E6.75955
G1 X176.387 Y157.081 E6.78762
G1 X176.148 Y157.635 E6.80568
G1 X175.944 Y158.074 E6.82017
G1 X175.618 Y158.717 E6.84175
G1 X175.403 Y159.11 E6.85516
G1 X175.043 Y159.722 E6.87642
G1 X175.017 Y159.763 E6.87787
G1 X174.548 Y160.443 E6.9026
G1 X174.253 Y160.839 E6.91738
G1 X173.757 Y161.458 E6.94112
G1 X173.529 Y161.722 E6.95156
G1 X172.994 Y162.299 E6.97512
G1 X172.657 Y162.637 E6.9894
G1 X172.244 Y163.03 E7.00647
G1 X171.81 Y163.405 E7.02364
G1 X171.615 Y163.565 E7.03119
G1 X171.075 Y163.981 E7.05159
G1 X170.978 Y164.051 E7.05518
G1 X170.568 Y164.333 E7.07007
G1 X170.113 Y164.631 E7.08635
G1 X169.479 Y165.017 E7.10857
G1 X168.717 Y165.41 E7.13424
G1 X168.094 Y165.702 E7.15483
G1 X167.597 Y165.92 E7.17108
G1 X167.536 Y165.945 E7.17305
G1 X166.621 Y166.274 E7.20216
G1 X166.124 Y166.428 E7.21773
G1 X165.465 Y166.61 E7.2382
G1 X165.358 Y166.636 E7.24149
G1 X164.9 Y166.737 E7.25553
G1 X164.668 Y166.783 E7.26261
G1 X164.253 Y166.857 E7.27523
G1 X163.423 Y166.963 E7.30028
G1 X162.975 Y167.003 E7.31374
G1 X162.21 Y167.045 E7.33668
G1 X161.848 Y167.052 E7.34751
G1 X161.105 Y167.041 E7.36976
G1 X160.732 Y167.023 E7.38094
G1 X159.963 Y166.959 E7.40404
G1 X159.534 Y166.908 E7.41697
G1 X158.984 Y166.829 E7.4336
G1 X158.212 Y166.673 E7.45718
G1 X157.902 Y166.599 E7.46672
G1 X157.217 Y166.412 E7.48797
G1 X156.091 Y166.065 E7.52324
G1 X153.627 Y165.343 E7.6001
G1 X151.158 Y164.695 E7.67651
G1 X148.738 Y164.132 E7.75089
G1 X146.243 Y163.624 E7.8271
G1 X143.783 Y163.2 E7.90183
G1 X141.284 Y162.838 E7.97741
G1 X138.787 Y162.548 E8.05266
G1 X136.265 Y162.329 E8.12844
G1 X133.77 Y162.182 E8.20326
G1 X131.222 Y162.104 E8.27956
G1 X129.709 Y162.092 E8.32486
G1 X77.456 Y162.091 E9.889
G1 X74.848 Y162.128 E9.96708
G1 X72.326 Y162.235 E10.04264
G1 X69.832 Y162.412 E10.11748
G1 X67.332 Y162.66 E10.19269
G1 X64.821 Y162.981 E10.26846
G1 X62.36 Y163.367 E10.34303
G1 X59.853 Y163.833 E10.41936
G1 X57.422 Y164.357 E10.4938
G1 X54.799 Y165.009 E10.57471
G1 X53.742 Y165.255 E10.6072
G1 X53.14 Y165.377 E10.62558
G1 X52.201 Y165.503 E10.65394
G1 X51.723 Y165.546 E10.66831
G1 X50.957 Y165.588 E10.69127
G1 X50.607 Y165.595 E10.70175
G1 X49.862 Y165.584 E10.72405
G1 X49.506 Y165.567 E10.73472
G1 X48.717 Y165.501 E10.75842
G1 X48.235 Y165.443 E10.77296
G1 X47.309 Y165.292 E10.80104
G1 X46.713 Y165.15 E10.81938
G1 X46.252 Y165.027 E10.83366
G1 X45.553 Y164.816 E10.85552
G1 X45.052 Y164.646 E10.87136
G1 X44.119 Y164.281 E10.90135
G1 X43.593 Y164.032 E10.91877
G1 X43.09 Y163.778 E10.93563
G1 X42.307 Y163.342 E10.96246
G1 X42.155 Y163.249 E10.9678
G1 X41.603 Y162.888 E10.98754
G1 X41.279 Y162.662 E10.99936
G1 X40.862 Y162.357 E11.01483
G1 X40.723 Y162.25 E11.02008
G1 X39.953 Y161.598 E11.05028
G1 X39.622 Y161.291 E11.0638
G1 X39.097 Y160.771 E11.08592
G1 X38.736 Y160.388 E11.10167
G1 X38.311 Y159.909 E11.12084
G1 X37.705 Y159.125 E11.1505
G1 X37.375 Y158.655 E11.16769
G1 X36.908 Y157.93 E11.19351
G1 X36.882 Y157.886 E11.19504
G1 X36.56 Y157.302 E11.215
G1 X36.323 Y156.839 E11.23057
G1 X36.012 Y156.179 E11.25241
G1 X35.841 Y155.782 E11.26535
G1 X35.575 Y155.102 E11.28721
G1 X35.558 Y155.054 E11.28873
G1 X35.308 Y154.253 E11.31385
G1 X35.185 Y153.798 E11.32796
G1 X35.015 Y153.069 E11.35036
G1 X34.909 Y152.535 E11.36666
G1 X34.734 Y151.277 E11.40468
G1 X34.709 Y150.929 E11.41512
G1 X34.681 Y150.415 E11.43053
G1 X34.666 Y149.645 E11.45359
G1 X34.668 Y149.517 E11.45742
G1 X34.704 Y148.782 E11.47945
G1 X34.75 Y148.226 E11.49615
G1 X34.853 Y147.381 E11.52163
G1 X34.878 Y147.226 E11.52633
G1 X35.016 Y146.518 E11.54792
G1 X35.119 Y146.069 E11.56171
G1 X35.279 Y145.455 E11.5807
G1 X35.513 Y144.652 E11.60574
G1 X36.11 Y142.671 E11.66767
G1 X36.772 Y140.231 E11.74335
G1 X37.36 Y137.794 E11.8184
G1 X37.874 Y135.345 E11.8933
G1 X38.321 Y132.879 E11.96832
G1 X38.704 Y130.375 E12.04415
G1 X39.011 Y127.886 E12.11922
G1 X39.249 Y125.38 E12.19457
G1 X39.417 Y122.851 E12.27044
G1 X39.514 Y120.327 E12.34605
G1 X39.54 Y118.165 E12.41078
G1 X39.541 Y103.037 E12.86362
G1 X39.504 Y100.429 E12.9417
G1 X39.398 Y97.931 E13.01654
G1 X39.22 Y95.401 E13.09246
G1 X38.969 Y92.886 E13.16812
G1 X38.654 Y90.413 E13.24274
G1 X38.266 Y87.941 E13.31764
G1 X37.8 Y85.434 E13.39398
G1 X37.281 Y83.026 E13.46771
G1 X36.83 Y81.227 E13.52323
G1 X36.54 Y79.993 E13.56117
G1 X36.379 Y79.166 E13.58639
G1 X36.342 Y78.928 E13.5936
G1 X36.283 Y78.494 E13.60672
G1 X36.263 Y78.32 E13.61196
G1 X36.207 Y77.663 E13.6317
G1 X36.181 Y77.186 E13.646
G1 X36.166 Y76.456 E13.66785
G1 X36.167 Y76.372 E13.67037
G1 X36.202 Y75.611 E13.69317
G1 X36.257 Y74.935 E13.71347
G1 X36.373 Y74.004 E13.74156
G1 X36.502 Y73.357 E13.76131
G1 X36.652 Y72.706 E13.7813
G1 X36.901 Y71.802 E13.80937
G1 X37.108 Y71.217 E13.82795
G1 X37.309 Y70.696 E13.84466
G1 X37.607 Y69.997 E13.86741
G1 X37.693 Y69.813 E13.87349
G1 X38.008 Y69.19 E13.89439
G1 X38.286 Y68.682 E13.91172
G1 X38.862 Y67.745 E13.94465
G1 X39.177 Y67.304 E13.96087
G1 X39.391 Y67.019 E13.97154
G1 X39.861 Y66.435 E13.99398
G1 X40.234 Y66.003 E14.01106
G1 X40.877 Y65.32 E14.03914
G1 X41.323 Y64.908 E14.05732
G1 X41.75 Y64.535 E14.07429
G1 X42.353 Y64.044 E14.09757
G1 X42.482 Y63.946 E14.10242
G0 F1350 X42.644 Y63.824
G0 X43.131 Y63.477
G0 F7500 X43.354 Y63.809
G1 F1500 X43.446 Y63.747 E14.10574
G1 X43.89 Y63.463 E14.12151
G1 X44.092 Y63.341 E14.12858
G1 X44.594 Y63.057 E14.14584
G1 X44.782 Y62.957 E14.15222
G1 X45.301 Y62.698 E14.16958
G1 X45.7 Y62.513 E14.18274
G1 X46.178 Y62.306 E14.19834
G1 X47.1 Y61.974 E14.22767
G1 X47.59 Y61.823 E14.24302
G1 X48.282 Y61.635 E14.26448
G1 X48.749 Y61.525 E14.27885
G1 X49.653 Y61.353 E14.30639
G1 X50.196 Y61.289 E14.32276
G1 X50.679 Y61.244 E14.33728
G1 X51.456 Y61.2 E14.36058
G1 X51.816 Y61.193 E14.37135
G1 X52.528 Y61.203 E14.39267
G1 X52.884 Y61.22 E14.40334
G1 X53.623 Y61.281 E14.42553
G1 X53.902 Y61.314 E14.43394
G1 X54.609 Y61.422 E14.45535
G1 X55.148 Y61.523 E14.47177
G1 X56.27 Y61.798 E14.50635
G1 X57.536 Y62.182 E14.54595
G1 X57.8 Y62.253 E14.55413
G1 X59.542 Y62.77 E14.60853
G1 X61.99 Y63.423 E14.68437
G1 X64.45 Y64.005 E14.76004
G1 X66.955 Y64.524 E14.83662
G1 X69.409 Y64.957 E14.91121
G1 X71.904 Y65.327 E14.98671
G1 X74.435 Y65.63 E15.06302
G1 X76.955 Y65.86 E15.13876
G1 X79.445 Y66.015 E15.21344
G1 X82.046 Y66.105 E15.29135
G1 X83.791 Y66.122 E15.34359
G1 X132.655 Y66.123 E16.80629
G1 X135.279 Y66.086 E16.88484
G1 X137.788 Y65.979 E16.96002
G1 X140.308 Y65.801 E17.03564
G1 X142.823 Y65.552 E17.11129
G1 X145.33 Y65.231 E17.18695
G1 X147.849 Y64.836 E17.26327
G1 X150.298 Y64.38 E17.33784
G1 X152.816 Y63.838 E17.41494
G1 X155.209 Y63.252 E17.48869
G1 X157.692 Y62.568 E17.56579
G1 X158.409 Y62.353 E17.58819
G1 X159.016 Y62.191 E17.607
G1 X159.519 Y62.072 E17.62247
G1 X160.371 Y61.907 E17.64845
G1 X160.437 Y61.897 E17.65045
G1 X161.085 Y61.819 E17.66998
G1 X161.557 Y61.777 E17.68417
G1 X162.272 Y61.737 E17.70561
G1 X162.649 Y61.729 E17.71689
G1 X163.378 Y61.739 E17.73872
G1 X163.798 Y61.759 E17.7513
G1 X164.399 Y61.805 E17.76935
G1 X165.311 Y61.936 E17.79693
G1 X165.777 Y62.024 E17.81112
G1 X166.553 Y62.201 E17.83495
G1 X167.083 Y62.343 E17.85137
G1 X168.218 Y62.717 E17.88714
G1 X168.536 Y62.842 E17.89737
G1 X169.086 Y63.076 E17.91526
G1 X169.173 Y63.116 E17.91813
G1 X169.538 Y63.292 E17.93026
G1 X169.899 Y63.475 E17.94238
G1 X170.296 Y63.687 E17.95585
G1 X171.298 Y64.306 E17.9911
G1 X171.808 Y64.662 E18.00972
G1 X172.401 Y65.108 E18.03193
G1 X172.453 Y65.15 E18.03393
G1 X173.003 Y65.626 E18.05571
G1 X173.475 Y66.064 E18.07498
G1 X174.122 Y66.719 E18.10254
G1 X174.489 Y67.147 E18.11942
G1 X174.898 Y67.65 E18.13883
G1 X175.236 Y68.087 E18.15536
G1 X175.768 Y68.882 E18.184
G1 X176.077 Y69.392 E18.20185
G1 X176.409 Y69.982 E18.22211
G1 X176.445 Y70.051 E18.22444
G1 X176.791 Y70.781 E18.24862
G1 X177.024 Y71.325 E18.26634
G1 X177.336 Y72.146 E18.29263
G1 X177.375 Y72.263 E18.29632
G1 X177.552 Y72.85 E18.31467
G1 X177.689 Y73.357 E18.3304
G1 X177.893 Y74.272 E18.35846
G1 X177.935 Y74.509 E18.36566
G1 X178.017 Y75.048 E18.38198
G1 X178.056 Y75.361 E18.39142
G1 X178.108 Y75.883 E18.40713
G1 X178.123 Y76.084 E18.41316
G1 X178.148 Y76.595 E18.42848
G1 X178.154 Y76.824 E18.43533
G1 X178.158 Y77.211 E18.44692
G1 X178.145 Y77.736 E18.46264
G1 X178.134 Y77.958 E18.46929
G1 X178.113 Y78.281 E18.47898
G1 X178.102 Y78.418 E18.48309
G1 X178.015 Y79.168 E18.5057
G1 X177.938 Y79.673 E18.52099
G1 X177.807 Y80.374 E18.54233
G1 X177.771 Y80.536 E18.5473
G1 X177.578 Y81.276 E18.57019
G1 X177.402 Y81.864 E18.58857
G1 X176.696 Y84.342 E18.6657
G1 X176.069 Y86.81 E18.74192
G1 X175.509 Y89.298 E18.81826
G1 X175.034 Y91.737 E18.89264
G1 X174.615 Y94.266 E18.96938
G1 X174.275 Y96.753 E19.04451
G1 X174.002 Y99.275 E19.12045
G1 X173.801 Y101.81 E19.19657
G1 X173.673 Y104.301 E19.27123
G1 X173.61 Y107.706 E19.37318
G1 X173.609 Y124.369 E19.87197
G1 X173.646 Y126.994 E19.95055
G1 X173.752 Y129.479 E20.02501
G1 X173.932 Y132.03 E20.10156
G1 X174.183 Y134.555 E20.17752
G1 X174.501 Y137.04 E20.25251
G1 X174.894 Y139.55 E20.32856
G1 X175.352 Y142.018 E20.4037
G1 X175.886 Y144.498 E20.47964
G1 X176.443 Y146.786 E20.55013
G1 X176.598 Y147.396 E20.56897
G1 X176.725 Y147.956 E20.58616
G1 X176.815 Y148.411 E20.60004
G1 X176.93 Y149.124 E20.62166
G1 X176.981 Y149.523 E20.6337
G1 X177.05 Y150.275 E20.6563
G1 X177.074 Y150.704 E20.66917
G1 X177.091 Y151.384 E20.68953
G1 X177.09 Y151.504 E20.69312
G1 X177.052 Y152.309 E20.71724
G1 X177.007 Y152.841 E20.73322
G1 X176.95 Y153.366 E20.74903
G1 X176.767 Y154.389 E20.78014
G1 X176.656 Y154.871 E20.79495
G1 X176.468 Y155.573 E20.8167
G1 X176.314 Y156.08 E20.83256
G1 X176.009 Y156.948 E20.8601
G1 X175.785 Y157.466 E20.877
G1 X175.581 Y157.905 E20.89149
G1 X175.267 Y158.525 E20.91229
G1 X175.052 Y158.918 E20.9257
G1 X174.705 Y159.508 E20.94619
G1 X174.679 Y159.549 E20.94764
G1 X174.228 Y160.204 E20.97145
G1 X173.933 Y160.6 E20.98623
G1 X173.454 Y161.196 E21.00912
G1 X173.226 Y161.46 E21.01956
G1 X172.71 Y162.016 E21.04227
G1 X172.373 Y162.354 E21.05655
G1 X171.975 Y162.734 E21.07303
G1 X171.557 Y163.096 E21.08958
G1 X171.362 Y163.256 E21.09713
G1 X170.841 Y163.657 E21.11681
G1 X170.744 Y163.727 E21.12039
G1 X170.349 Y163.998 E21.13473
G1 X169.894 Y164.296 E21.15101
G1 X169.281 Y164.669 E21.17249
G1 X168.548 Y165.048 E21.19719
G1 X167.925 Y165.34 E21.21779
G1 X167.446 Y165.55 E21.23344
G1 X167.385 Y165.575 E21.23542
G1 X166.502 Y165.892 E21.2635
G1 X166.005 Y166.046 E21.27907
G1 X165.371 Y166.221 E21.29876
G1 X165.264 Y166.247 E21.30206
G1 X164.823 Y166.345 E21.31558
G1 X164.591 Y166.391 E21.32266
G1 X164.188 Y166.463 E21.33492
G1 X163.388 Y166.565 E21.35906
G1 X162.94 Y166.605 E21.37252
G1 X162.202 Y166.645 E21.39464
G1 X161.84 Y166.652 E21.40548
G1 X161.124 Y166.642 E21.42692
G1 X160.751 Y166.624 E21.4381
G1 X160.011 Y166.562 E21.46033
G1 X159.582 Y166.511 E21.47326
G1 X159.049 Y166.434 E21.48938
G1 X158.305 Y166.284 E21.5121
G1 X157.995 Y166.21 E21.52164
