;FLAVOR:Marlin
;TIME:24113
;Filament used: 17.6885m
;Layer height: 0.2
;MINX:38.001
;MINY:64.72
;MINZ:0.2
;MAXX:182.126
;MAXY:169.181
;MAXZ:33
;Generated with Cura_SteamEngine 4.10.0
M140 S60
M105
M190 S60
M104 S210
M105
M109 S210
M82 ;absolute extrusion mode
; Ender 3 Custom Start G-code
G92 E0 ; Reset Extruder
G28 ; Home all axes
M420 S1 ; Load Saved Mesh
G1 Z2.0 F3000 ; Move Z Axis up little to prevent scratching of Heat Bed
G1 X0.1 Y20 Z0.3 F5000.0 ; Move to start position
G1 X0.1 Y200.0 Z0.3 F1500.0 E15 ; Draw the first line
G1 X0.4 Y200.0 Z0.3 F5000.0 ; Move to side a little
G1 X0.4 Y20 Z0.3 F1500.0 E30 ; Draw the second line
G92 E0 ; Reset Extruder
G1 Z2.0 F3000 ; Move Z Axis up little to prevent scratching of Heat Bed
G1 X5 Y20 Z0.3 F5000.0 ; Move over to prevent blob squish
G92 E0
G92 E0
G1 F1800 E-8
;LAYER_COUNT:165
;LAYER:0
M107
M204 S500
M205 X8 Y8
G0 F7500 X45.031 Y67.365 Z0.2
;TYPE:SKIRT
G1 F1800 E0
G1 F1500 X45.36 Y67.149 E0.01244
G1 X45.878 Y66.829 E0.03167
G1 X45.928 Y66.8 E0.0335
G1 X46.792 Y66.349 E0.0643
G1 X47.263 Y66.129 E0.08072
G1 X47.941 Y65.839 E0.10402
G1 X48.382 Y65.668 E0.11897
G1 X49.27 Y65.367 E0.14859
G1 X49.867 Y65.21 E0.1681
G1 X50.413 Y65.083 E0.18581
G1 X51.129 Y64.941 E0.20888
G1 X51.508 Y64.879 E0.22101
G1 X52.275 Y64.781 E0.24544
G1 X52.351 Y64.774 E0.24785
G1 X53.131 Y64.73 E0.27254
G1 X53.612 Y64.72 E0.28774
G1 X54.371 Y64.731 E0.31172
G1 X54.869 Y64.755 E0.32748
G1 X55.55 Y64.809 E0.34906
G1 X56.463 Y64.945 E0.37823
G1 X57.082 Y65.064 E0.39815
G1 X57.663 Y65.192 E0.41694
G1 X59.205 Y65.576 E0.46716
G1 X61.698 Y66.122 E0.54779
G1 X64.154 Y66.585 E0.62676
G1 X66.629 Y66.98 E0.70596
G1 X69.1 Y67.305 E0.78471
G1 X71.64 Y67.564 E0.86538
G1 X74.114 Y67.747 E0.94376
G1 X76.648 Y67.863 E1.02391
G1 X79.547 Y67.908 E1.11552
G1 X146.447 Y67.908 E3.22937
G1 X149.055 Y67.871 E3.31179
G1 X151.577 Y67.764 E3.39155
G1 X154.071 Y67.587 E3.47055
G1 X156.571 Y67.339 E3.54993
G1 X159.064 Y67.02 E3.62934
G1 X161.585 Y66.624 E3.70998
G1 X162.991 Y66.366 E3.75514
G1 X163.21 Y66.328 E3.76217
G1 X164.088 Y66.185 E3.79027
G1 X164.834 Y66.09 E3.81404
G1 X164.909 Y66.083 E3.81642
G1 X165.702 Y66.037 E3.84151
G1 X166.183 Y66.027 E3.85672
G1 X166.942 Y66.038 E3.8807
G1 X167.44 Y66.062 E3.89645
G1 X168.196 Y66.124 E3.92042
G1 X169.004 Y66.247 E3.94625
G1 X169.41 Y66.324 E3.9593
G1 X170.182 Y66.499 E3.98431
G1 X170.732 Y66.645 E4.0023
G1 X171.628 Y66.924 E4.03195
G1 X172.176 Y67.138 E4.05054
G1 X172.744 Y67.377 E4.07001
G1 X173.277 Y67.618 E4.08849
G1 X173.343 Y67.65 E4.09081
G1 X173.839 Y67.906 E4.10844
G1 X174.032 Y68.012 E4.1154
G1 X174.37 Y68.205 E4.1277
G1 X175.169 Y68.716 E4.15767
G1 X175.481 Y68.935 E4.16971
G1 X176.04 Y69.354 E4.19179
G1 X176.498 Y69.721 E4.21033
G1 X177.204 Y70.338 E4.23996
G1 X177.633 Y70.77 E4.25919
G1 X178.058 Y71.222 E4.2788
G1 X178.525 Y71.751 E4.30109
G1 X178.563 Y71.797 E4.30298
G1 X179.068 Y72.459 E4.32929
G1 X179.421 Y72.959 E4.34863
G1 X179.968 Y73.814 E4.3807
G1 X180.239 Y74.311 E4.39858
G1 X180.467 Y74.755 E4.41435
G1 X180.791 Y75.444 E4.43841
G1 X180.975 Y75.873 E4.45316
G1 X181.209 Y76.465 E4.47328
G1 X181.383 Y76.977 E4.49036
G1 X181.458 Y77.217 E4.49831
G1 X181.595 Y77.692 E4.51393
G1 X181.775 Y78.455 E4.5387
G1 X181.884 Y79.007 E4.55648
G1 X181.992 Y79.66 E4.57739
G1 X182 Y79.719 E4.57927
G1 X182.082 Y80.573 E4.60638
G1 X182.109 Y81.048 E4.62141
G1 X182.126 Y81.841 E4.64647
G1 X182.119 Y82.297 E4.66088
G1 X182.085 Y83 E4.68312
G1 X182.057 Y83.352 E4.69428
G1 X181.996 Y83.934 E4.71277
G1 X181.984 Y84.024 E4.71564
G1 X181.799 Y85.041 E4.7483
G1 X181.666 Y85.618 E4.76701
G1 X181.501 Y86.248 E4.78759
G1 X181.244 Y87.12 E4.81631
G1 X180.688 Y88.961 E4.87708
G1 X180.023 Y91.414 E4.95738
G1 X179.439 Y93.84 E5.03623
G1 X178.909 Y96.343 E5.11707
G1 X178.468 Y98.769 E5.19498
G1 X178.084 Y101.285 E5.2754
G1 X177.772 Y103.796 E5.35535
G1 X177.535 Y106.282 E5.43425
G1 X177.368 Y108.777 E5.51327
G1 X177.269 Y111.336 E5.59418
G1 X177.242 Y113.539 E5.6638
G1 X177.242 Y124.775 E6.01882
G1 X177.279 Y127.383 E6.10124
G1 X177.386 Y129.905 E6.181
G1 X177.563 Y132.399 E6.26
G1 X177.811 Y134.897 E6.33932
G1 X178.129 Y137.386 E6.4186
G1 X178.523 Y139.895 E6.49885
G1 X178.982 Y142.361 E6.57811
G1 X179.501 Y144.775 E6.65612
G1 X180.365 Y148.229 E6.76862
G1 X180.698 Y149.46 E6.80892
G1 X180.874 Y150.216 E6.83344
G1 X180.926 Y150.481 E6.84198
G1 X181.044 Y151.213 E6.8654
G1 X181.075 Y151.457 E6.87318
G1 X181.145 Y152.22 E6.89739
G1 X181.181 Y152.855 E6.91748
G1 X181.194 Y153.793 E6.94712
G1 X181.159 Y154.417 E6.96687
G1 X181.116 Y154.919 E6.98279
G1 X181.03 Y155.637 E7.00564
G1 X180.966 Y156.057 E7.01906
G1 X180.764 Y157.068 E7.05164
G1 X180.717 Y157.256 E7.05776
G1 X180.576 Y157.765 E7.07445
G1 X180.449 Y158.186 E7.08835
G1 X180.281 Y158.698 E7.10537
G1 X180.239 Y158.816 E7.10933
G1 X179.854 Y159.756 E7.14142
G1 X179.616 Y160.269 E7.15929
G1 X179.24 Y161.006 E7.18544
G1 X179.164 Y161.142 E7.19036
G1 X178.809 Y161.734 E7.21217
G1 X178.53 Y162.167 E7.22845
G1 X178.126 Y162.751 E7.25088
G1 X178.072 Y162.824 E7.25375
G1 X177.576 Y163.447 E7.27891
G1 X177.188 Y163.899 E7.29774
G1 X176.672 Y164.459 E7.3218
G1 X176.599 Y164.533 E7.32508
G1 X176.248 Y164.873 E7.34052
G1 X176.055 Y165.052 E7.34884
G1 X175.198 Y165.769 E7.38415
G1 X174.718 Y166.131 E7.40314
G1 X174.103 Y166.563 E7.42689
G1 X173.807 Y166.756 E7.43805
G1 X173.315 Y167.059 E7.45631
G1 X173.227 Y167.11 E7.45953
G1 X172.727 Y167.383 E7.47753
G1 X172.524 Y167.487 E7.48473
G1 X172.16 Y167.665 E7.49754
G1 X171.418 Y167.987 E7.52309
G1 X170.88 Y168.197 E7.54134
G1 X170.233 Y168.427 E7.56304
G1 X170.133 Y168.459 E7.56636
G1 X169.305 Y168.688 E7.5935
G1 X168.758 Y168.817 E7.61126
G1 X167.968 Y168.973 E7.6367
G1 X167.824 Y168.996 E7.64131
G1 X167.052 Y169.092 E7.66589
G1 X166.54 Y169.137 E7.68213
G1 X165.866 Y169.175 E7.70346
G1 X165.752 Y169.178 E7.70706
G1 X165.315 Y169.181 E7.72087
G1 X165.092 Y169.178 E7.72792
G1 X164.737 Y169.167 E7.73914
G1 X164.606 Y169.161 E7.74328
G1 X163.805 Y169.095 E7.76868
G1 X163.269 Y169.031 E7.78574
G1 X162.668 Y168.943 E7.80493
G1 X162.577 Y168.927 E7.80785
G1 X161.667 Y168.727 E7.83729
G1 X161.055 Y168.565 E7.85729
G1 X160.705 Y168.466 E7.86878
G1 X159.515 Y168.107 E7.90806
G1 X159.312 Y168.043 E7.91478
G1 X156.886 Y167.352 E7.99449
G1 X154.415 Y166.723 E8.07505
G1 X151.974 Y166.173 E8.15412
G1 X149.511 Y165.695 E8.23339
G1 X147.012 Y165.28 E8.31343
G1 X144.524 Y164.939 E8.39278
G1 X142.034 Y164.67 E8.47192
G1 X139.541 Y164.471 E8.55094
G1 X137.011 Y164.341 E8.63099
G1 X133.606 Y164.278 E8.73859
G1 X85.623 Y164.278 E10.25472
G1 X83.015 Y164.315 E10.33713
G1 X80.493 Y164.422 E10.41689
G1 X77.999 Y164.599 E10.49589
G1 X75.499 Y164.847 E10.57527
G1 X73.006 Y165.166 E10.65469
G1 X70.513 Y165.557 E10.73442
G1 X68.023 Y166.02 E10.81445
G1 X65.559 Y166.55 E10.89408
G1 X63.157 Y167.139 E10.97223
G1 X60.684 Y167.819 E11.05327
G1 X59.12 Y168.29 E11.10488
G1 X58.805 Y168.387 E11.11529
G1 X58.086 Y168.582 E11.13883
G1 X57.568 Y168.704 E11.15565
G1 X56.647 Y168.88 E11.18527
G1 X56.029 Y168.953 E11.20494
G1 X55.572 Y168.994 E11.21943
G1 X54.812 Y169.036 E11.24348
G1 X54.467 Y169.043 E11.25439
G1 X53.702 Y169.032 E11.27856
G1 X53.317 Y169.013 E11.29074
G1 X52.561 Y168.949 E11.31471
G1 X52.115 Y168.896 E11.32891
G1 X51.189 Y168.746 E11.35855
G1 X50.599 Y168.607 E11.3777
G1 X50.085 Y168.471 E11.3945
G1 X49.357 Y168.251 E11.41853
G1 X49.063 Y168.151 E11.42834
G1 X48.313 Y167.865 E11.4537
G1 X48.018 Y167.74 E11.46383
G1 X47.356 Y167.433 E11.48688
G1 X47.019 Y167.263 E11.49881
G1 X46.341 Y166.891 E11.52325
G1 X46.039 Y166.711 E11.53435
G1 X45.366 Y166.275 E11.55969
G1 X45.143 Y166.119 E11.56829
G1 X44.571 Y165.691 E11.59086
G1 X44.174 Y165.373 E11.60694
G1 X43.951 Y165.19 E11.61605
G1 X43.214 Y164.512 E11.64769
G1 X42.983 Y164.279 E11.65806
G1 X42.263 Y163.477 E11.69212
G1 X41.861 Y162.983 E11.71224
G1 X41.501 Y162.515 E11.7309
G1 X40.95 Y161.688 E11.7623
G1 X40.721 Y161.308 E11.77631
G1 X40.352 Y160.646 E11.80026
G1 X40.084 Y160.123 E11.81883
G1 X39.693 Y159.271 E11.84845
G1 X39.489 Y158.734 E11.8666
G1 X39.314 Y158.233 E11.88337
G1 X39.157 Y157.748 E11.89948
G1 X39.126 Y157.644 E11.90291
G1 X38.957 Y157.009 E11.92367
G1 X38.902 Y156.774 E11.93129
G1 X38.817 Y156.38 E11.94403
G1 X38.673 Y155.508 E11.97196
G1 X38.602 Y154.937 E11.99014
G1 X38.547 Y154.372 E12.00807
G1 X38.54 Y154.275 E12.01115
G1 X38.512 Y153.65 E12.03091
G1 X38.508 Y153.386 E12.03926
G1 X38.547 Y152.284 E12.0741
G1 X38.602 Y151.639 E12.09455
G1 X38.698 Y150.847 E12.11976
G1 X38.746 Y150.545 E12.12942
G1 X38.867 Y149.909 E12.14988
G1 X38.889 Y149.809 E12.15311
G1 X39.008 Y149.319 E12.16905
G1 X39.113 Y148.928 E12.18184
G1 X39.173 Y148.714 E12.18886
G1 X39.584 Y147.297 E12.23548
G1 X40.216 Y144.869 E12.31475
G1 X40.783 Y142.405 E12.39464
G1 X41.278 Y139.94 E12.47409
G1 X41.697 Y137.482 E12.55287
G1 X42.056 Y134.952 E12.63361
G1 X42.337 Y132.469 E12.71257
G1 X42.548 Y129.991 E12.79115
G1 X42.689 Y127.492 E12.87024
G1 X42.772 Y123.559 E12.99454
G1 X42.772 Y111.881 E13.36353
G1 X42.735 Y109.272 E13.44597
G1 X42.628 Y106.75 E13.52573
G1 X42.451 Y104.256 E13.60474
G1 X42.204 Y101.761 E13.68396
G1 X41.884 Y99.26 E13.76362
G1 X41.493 Y96.771 E13.84323
G1 X41.031 Y94.288 E13.92304
G1 X40.505 Y91.843 E14.00206
G1 X39.9 Y89.373 E14.08241
G1 X39.23 Y86.94 E14.16215
G1 X38.76 Y85.376 E14.21375
G1 X38.666 Y85.071 E14.22383
G1 X38.555 Y84.69 E14.23637
G1 X38.528 Y84.59 E14.23965
G1 X38.362 Y83.884 E14.26256
G1 X38.248 Y83.315 E14.2809
G1 X38.11 Y82.444 E14.30876
G1 X38.093 Y82.3 E14.31334
G1 X38.033 Y81.601 E14.33551
G1 X38.016 Y81.285 E14.34551
G1 X38.001 Y80.551 E14.36871
G1 X38.009 Y79.935 E14.38817
G1 X38.033 Y79.339 E14.40702
G1 X38.088 Y78.736 E14.42615
G1 X38.115 Y78.511 E14.43331
G1 X38.167 Y78.135 E14.44531
G1 X38.185 Y78.019 E14.44901
G1 X38.327 Y77.277 E14.47289
G1 X38.452 Y76.725 E14.49077
G1 X38.614 Y76.095 E14.51132
G1 X38.636 Y76.019 E14.51382
G1 X38.81 Y75.472 E14.53196
G1 X38.886 Y75.253 E14.53928
G1 X39.04 Y74.834 E14.55339
G1 X39.348 Y74.105 E14.57839
G1 X39.529 Y73.716 E14.59195
G1 X39.856 Y73.069 E14.61486
G1 X40.089 Y72.644 E14.63017
G1 X40.474 Y71.996 E14.65399
G1 X40.499 Y71.957 E14.65545
G1 X40.943 Y71.315 E14.68012
G1 X41.228 Y70.933 E14.69518
G1 X41.723 Y70.317 E14.72014
G1 X41.959 Y70.044 E14.73155
G1 X42.491 Y69.471 E14.75625
G1 X42.828 Y69.133 E14.77133
G1 X43.518 Y68.498 E14.80096
G1 X43.987 Y68.123 E14.81994
G1 X44.378 Y67.827 E14.83543
G0 F1350 X44.437 Y67.783
G0 X45.031 Y67.365
G0 F7500 X45.25 Y67.699
G1 F1500 X45.579 Y67.483 E14.84787
G1 X46.129 Y67.146 E14.86825
G1 X46.961 Y66.711 E14.89791
G1 X47.432 Y66.491 E14.91434
G1 X48.086 Y66.212 E14.93681
G1 X48.527 Y66.041 E14.95175
G1 X49.399 Y65.746 E14.98084
G1 X49.958 Y65.6 E14.99909
G1 X50.504 Y65.473 E15.01681
G1 X51.194 Y65.336 E15.03903
G1 X51.573 Y65.274 E15.05117
G1 X52.312 Y65.18 E15.07471
G1 X52.388 Y65.173 E15.07712
G1 X53.14 Y65.13 E15.10092
G1 X53.621 Y65.12 E15.11612
G1 X54.351 Y65.13 E15.13919
G1 X54.849 Y65.154 E15.15494
G1 X55.507 Y65.206 E15.1758
G1 X56.387 Y65.338 E15.20391
G1 X57.006 Y65.457 E15.22383
G1 X57.566 Y65.58 E15.24195
G1 X59.128 Y65.969 E15.29281
G1 X61.604 Y66.512 E15.3729
G1 X64.089 Y66.98 E15.4528
G1 X66.55 Y67.373 E15.53155
G1 X69.078 Y67.704 E15.61211
G1 X71.603 Y67.963 E15.69231
G1 X74.102 Y68.147 E15.77148
G1 X76.624 Y68.262 E15.85125
G1 X79.541 Y68.308 E15.94343
G1 X146.453 Y68.308 E18.05766
G1 X149.077 Y68.271 E18.14058
G1 X151.586 Y68.164 E18.21993
G1 X154.106 Y67.986 E18.29975
G1 X156.621 Y67.737 E18.37961
G1 X159.11 Y67.418 E18.4589
G1 X161.641 Y67.02 E18.53985
G1 X163.063 Y66.759 E18.58553
G1 X164.152 Y66.58 E18.6204
G1 X164.871 Y66.488 E18.64331
G1 X164.946 Y66.481 E18.64569
G1 X165.711 Y66.437 E18.6699
G1 X166.192 Y66.427 E18.6851
G1 X166.922 Y66.437 E18.70817
G1 X167.42 Y66.461 E18.72392
G1 X168.151 Y66.522 E18.7471
G1 X168.929 Y66.64 E18.77196
G1 X169.335 Y66.717 E18.78502
G1 X170.08 Y66.886 E18.80916
G1 X170.63 Y67.032 E18.82714
G1 X171.508 Y67.306 E18.8562
G1 X172.021 Y67.507 E18.87361
G1 X172.589 Y67.746 E18.89308
G1 X173.102 Y67.978 E18.91087
G1 X173.168 Y68.01 E18.91319
G1 X173.647 Y68.257 E18.93022
G1 X174.058 Y68.486 E18.94508
G1 X174.17 Y68.551 E18.94918
G1 X174.939 Y69.043 E18.97802
G1 X175.251 Y69.262 E18.99007
G1 X175.789 Y69.666 E19.01132
G1 X176.247 Y70.033 E19.02987
G1 X176.94 Y70.639 E19.05896
G1 X177.341 Y71.044 E19.07697
G1 X177.766 Y71.496 E19.09657
G1 X178.216 Y72.006 E19.11806
G1 X178.254 Y72.052 E19.11994
G1 X178.741 Y72.689 E19.14528
G1 X179.094 Y73.189 E19.16462
G1 X179.621 Y74.014 E19.19555
G1 X179.883 Y74.494 E19.21283
G1 X180.111 Y74.938 E19.2286
G1 X180.424 Y75.602 E19.2518
G1 X180.608 Y76.031 E19.26655
G1 X180.834 Y76.603 E19.28598
G1 X181.001 Y77.096 E19.30243
G1 X181.076 Y77.336 E19.31037
G1 X181.209 Y77.797 E19.32553
G1 X181.382 Y78.533 E19.34942
G1 X181.491 Y79.085 E19.3672
G1 X181.596 Y79.714 E19.38735
G1 X181.604 Y79.773 E19.38923
G1 X181.683 Y80.595 E19.41532
G1 X181.71 Y81.07 E19.43035
G1 X181.726 Y81.835 E19.45453
G1 X181.719 Y82.291 E19.46894
G1 X181.687 Y82.969 E19.49039
G1 X181.659 Y83.321 E19.50155
G1 X181.599 Y83.881 E19.51934
G1 X181.587 Y83.971 E19.52221
G1 X181.409 Y84.951 E19.55368
G1 X181.276 Y85.528 E19.57239
G1 X181.117 Y86.135 E19.59222
G1 X180.862 Y87.004 E19.62083
G1 X180.296 Y88.878 E19.68269
G1 X179.636 Y91.313 E19.7624
G1 X179.044 Y93.77 E19.84226
G1 X178.524 Y96.228 E19.92164
G1 X178.072 Y98.714 E20.00148
G1 X177.685 Y101.246 E20.08242
G1 X177.375 Y103.741 E20.16186
G1 X177.136 Y106.253 E20.24159
G1 X176.968 Y108.769 E20.32126
G1 X176.869 Y111.316 E20.4018
G1 X176.842 Y113.534 E20.47189
G1 X176.842 Y124.781 E20.82726
G1 X176.879 Y127.405 E20.91018
G1 X176.986 Y129.914 E20.98953
G1 X177.164 Y132.43 E21.06923
G1 X177.414 Y134.954 E21.14937
G1 X177.735 Y137.462 E21.22926
G1 X178.122 Y139.924 E21.30801
G1 X178.591 Y142.446 E21.38906
G1 X179.112 Y144.866 E21.46728
G1 X179.975 Y148.321 E21.5798
G1 X180.312 Y149.564 E21.62049
G1 X180.482 Y150.293 E21.64415
G1 X180.534 Y150.558 E21.65268
G1 X180.647 Y151.263 E21.67524
G1 X180.678 Y151.507 E21.68301
G1 X180.746 Y152.243 E21.70637
G1 X180.782 Y152.878 E21.72646
G1 X180.794 Y153.799 E21.75557
G1 X180.76 Y154.383 E21.77405
G1 X180.717 Y154.885 E21.78997
G1 X180.635 Y155.577 E21.81199
G1 X180.571 Y155.997 E21.82541
G1 X180.376 Y156.971 E21.8568
G1 X180.329 Y157.159 E21.86292
G1 X180.193 Y157.649 E21.87899
G1 X180.066 Y158.07 E21.89288
G1 X179.904 Y158.563 E21.90928
G1 X179.862 Y158.681 E21.91324
G1 X179.492 Y159.588 E21.94419
G1 X179.254 Y160.101 E21.96206
G1 X178.891 Y160.811 E21.98725
G1 X178.815 Y160.947 E21.99218
G1 X178.472 Y161.517 E22.0132
G1 X178.193 Y161.95 E22.02947
G1 X177.805 Y162.513 E22.05108
G1 X177.751 Y162.586 E22.05395
G1 X177.272 Y163.186 E22.0782
G1 X176.884 Y163.638 E22.09703
G1 X176.387 Y164.178 E22.12022
G1 X176.314 Y164.252 E22.1235
G1 X175.976 Y164.58 E22.13838
G1 X175.783 Y164.759 E22.1467
G1 X174.958 Y165.45 E22.1807
G1 X174.478 Y165.812 E22.1997
G1 X173.885 Y166.228 E22.22259
G1 X173.589 Y166.421 E22.23375
G1 X173.114 Y166.713 E22.25137
G1 X173.026 Y166.764 E22.25458
G1 X172.544 Y167.027 E22.27193
G1 X172.341 Y167.131 E22.27914
G1 X171.988 Y167.304 E22.29156
G1 X171.272 Y167.614 E22.31621
G1 X170.734 Y167.824 E22.33446
G1 X170.111 Y168.046 E22.35536
G1 X170.011 Y168.078 E22.35868
G1 X169.213 Y168.299 E22.38484
G1 X168.666 Y168.428 E22.4026
G1 X167.905 Y168.578 E22.42711
G1 X167.761 Y168.601 E22.43171
G1 X167.017 Y168.693 E22.4554
G1 X166.505 Y168.738 E22.47164
G1 X165.856 Y168.775 E22.49218
G1 X165.742 Y168.778 E22.49579
G1 X165.32 Y168.781 E22.50912
G1 X165.097 Y168.778 E22.51617
G1 X164.755 Y168.768 E22.52698
G1 X164.624 Y168.762 E22.53112
G1 X163.852 Y168.698 E22.5556
G1 X163.316 Y168.634 E22.57265
G1 X162.737 Y168.549 E22.59114
G1 X162.646 Y168.533 E22.59406
G1 X161.77 Y168.34 E22.62241
G1 X161.158 Y168.178 E22.64241
G1 X160.821 Y168.083 E22.65347
G1 X159.635 Y167.726 E22.69261
G1 X159.403 Y167.653 E22.70029
G1 X156.98 Y166.962 E22.77991
G1 X154.53 Y166.339 E22.85978
G1 X152.04 Y165.778 E22.94043
