;FLAVOR:Marlin
;TIME:22200
;Filament used: 16.9189m
;Layer height: 0.2
;MINX:45.616
;MINY:64.835
;MINZ:0.2
;MAXX:180.085
;MAXY:161.204
;MAXZ:33
;Generated with Cura_SteamEngine 4.10.0
M140 S60
M105
M190 S60
M104 S210
M105
M109 S210
M82 ;absolute extrusion mode
; Ender 3 Custom Start G-code
G92 E0 ; Reset Extruder
G28 ; Home all axes
M420 S1 ; Load Saved Mesh
G1 Z2.0 F3000 ; Move Z Axis up little to prevent scratching of Heat Bed
G1 X0.1 Y20 Z0.3 F5000.0 ; Move to start position
G1 X0.1 Y200.0 Z0.3 F1500.0 E15 ; Draw the first line
G1 X0.4 Y200.0 Z0.3 F5000.0 ; Move to side a little
G1 X0.4 Y20 Z0.3 F1500.0 E30 ; Draw the second line
G92 E0 ; Reset Extruder
G1 Z2.0 F3000 ; Move Z Axis up little to prevent scratching of Heat Bed
G1 X5 Y20 Z0.3 F5000.0 ; Move over to prevent blob squish
G92 E0
G92 E0
G1 F1800 E-8
;LAYER_COUNT:165
;LAYER:0
M107
M204 S500
M205 X8 Y8
G0 F7500 X50.407 Y67.266 Z0.2
;TYPE:SKIRT
G1 F1800 E0
G1 F1500 X51.175 Y66.728 E0.02807
G1 X51.986 Y66.257 E0.05614
G1 X52.703 Y65.914 E0.07993
G1 X52.953 Y65.805 E0.0881
G1 X53.828 Y65.467 E0.11618
G1 X54.728 Y65.205 E0.14424
G1 X55.714 Y65.01 E0.17432
G1 X56 Y64.967 E0.18298
G1 X57.283 Y64.851 E0.22154
G1 X57.595 Y64.841 E0.23089
G1 X57.947 Y64.835 E0.24143
G1 X167.371 Y64.835 E3.51694
G1 X168.227 Y64.846 E3.54256
G1 X169.445 Y64.931 E3.57911
G1 X169.683 Y64.961 E3.58629
G1 X170.236 Y65.045 E3.60303
G1 X171.151 Y65.248 E3.63109
G1 X172.363 Y65.646 E3.66928
G1 X172.591 Y65.736 E3.67661
G1 X173.448 Y66.118 E3.7047
G1 X174.269 Y66.57 E3.73276
G1 X175.14 Y67.159 E3.76423
G1 X175.37 Y67.331 E3.77283
G1 X176.096 Y67.924 E3.80089
G1 X176.769 Y68.577 E3.82896
G1 X177.391 Y69.293 E3.85735
G1 X177.527 Y69.464 E3.86389
G1 X178.079 Y70.222 E3.89196
G1 X178.565 Y71.025 E3.92005
G1 X179.012 Y71.938 E3.95048
G1 X179.132 Y72.215 E3.95952
G1 X179.467 Y73.091 E3.98759
G1 X179.727 Y73.992 E4.01567
G1 X179.923 Y75.002 E4.04646
G1 X179.96 Y75.256 E4.05415
G1 X180.07 Y76.499 E4.0915
G1 X180.08 Y76.82 E4.10111
G1 X180.085 Y77.163 E4.11138
G1 X180.084 Y148.612 E6.25014
G1 X180.074 Y149.339 E6.27191
G1 X179.99 Y150.552 E6.30831
G1 X179.962 Y150.776 E6.31506
G1 X179.806 Y151.701 E6.34314
G1 X179.572 Y152.609 E6.37121
G1 X179.295 Y153.409 E6.39655
G1 X179.178 Y153.709 E6.40619
G1 X178.8 Y154.567 E6.43426
G1 X178.351 Y155.39 E6.46232
G1 X177.717 Y156.329 E6.49624
G1 X177.595 Y156.491 E6.50231
G1 X176.999 Y157.216 E6.5304
G1 X176.344 Y157.887 E6.55847
G1 X175.591 Y158.534 E6.58819
G1 X175.351 Y158.722 E6.59732
G1 X174.589 Y159.268 E6.62538
G1 X173.783 Y159.747 E6.65344
G1 X172.985 Y160.136 E6.68002
G1 X172.782 Y160.225 E6.68665
G1 X171.908 Y160.565 E6.71472
G1 X171.008 Y160.829 E6.7428
G1 X169.951 Y161.036 E6.77504
G1 X169.649 Y161.08 E6.78418
G1 X168.408 Y161.19 E6.82147
G1 X168.121 Y161.199 E6.83007
G1 X167.776 Y161.204 E6.84039
G1 X58.172 Y161.204 E10.12129
G1 X57.474 Y161.194 E10.14219
G1 X56.219 Y161.104 E10.17985
G1 X55.972 Y161.072 E10.18731
G1 X55.048 Y160.912 E10.21538
G1 X54.14 Y160.674 E10.24348
G1 X53.368 Y160.403 E10.26797
G1 X53.136 Y160.312 E10.27543
G1 X52.279 Y159.933 E10.30348
G1 X51.456 Y159.482 E10.33157
G1 X50.571 Y158.885 E10.36353
G1 X50.33 Y158.705 E10.37253
G1 X49.603 Y158.112 E10.40062
G1 X48.929 Y157.46 E10.42869
G1 X48.251 Y156.674 E10.45976
G1 X48.103 Y156.485 E10.46694
G1 X47.557 Y155.722 E10.49503
G1 X47.078 Y154.916 E10.5231
G1 X46.646 Y154.019 E10.5529
G1 X46.553 Y153.801 E10.55999
G1 X46.222 Y152.924 E10.58805
G1 X45.967 Y152.021 E10.61614
G1 X45.791 Y151.105 E10.64406
G1 X45.745 Y150.796 E10.65341
G1 X45.631 Y149.528 E10.69152
G1 X45.622 Y149.247 E10.69994
G1 X45.616 Y148.895 E10.71048
G1 X45.616 Y77.355 E12.85196
G1 X45.626 Y76.684 E12.87205
G1 X45.714 Y75.454 E12.90896
G1 X45.743 Y75.227 E12.91582
G1 X45.901 Y74.303 E12.94388
G1 X46.138 Y73.395 E12.97197
G1 X46.425 Y72.576 E12.99794
G1 X46.529 Y72.313 E13.00641
G1 X46.91 Y71.456 E13.03448
G1 X47.364 Y70.635 E13.06257
G1 X47.944 Y69.776 E13.09359
G1 X48.118 Y69.543 E13.1023
G1 X48.711 Y68.816 E13.13038
G1 X49.364 Y68.143 E13.15845
G1 X49.792 Y67.777 E13.17531
G0 F1350 X50.24 Y67.394
G0 X50.407 Y67.266
G0 F7500 X50.651 Y67.584
G1 F1500 X51.405 Y67.056 E13.20286
G1 X52.202 Y66.596 E13.23041
G1 X52.863 Y66.28 E13.25234
G1 X53.113 Y66.171 E13.26051
G1 X53.972 Y65.84 E13.28806
G1 X54.856 Y65.585 E13.3156
G1 X55.773 Y65.406 E13.34357
G1 X56.059 Y65.363 E13.35223
G1 X57.295 Y65.25 E13.38938
G1 X57.607 Y65.24 E13.39872
G1 X57.947 Y65.235 E13.4089
G1 X167.371 Y65.235 E16.68441
G1 X168.221 Y65.246 E16.70986
G1 X169.395 Y65.328 E16.74509
G1 X169.633 Y65.358 E16.75227
G1 X170.166 Y65.439 E16.76841
G1 X171.065 Y65.639 E16.79598
G1 X172.216 Y66.018 E16.83225
G1 X172.444 Y66.108 E16.83959
G1 X173.285 Y66.483 E16.86715
G1 X174.09 Y66.93 E16.89471
G1 X174.9 Y67.479 E16.92401
G1 X175.13 Y67.651 E16.9326
G1 X175.843 Y68.234 E16.96017
G1 X176.502 Y68.877 E16.98773
G1 X177.078 Y69.542 E17.01407
G1 X177.214 Y69.713 E17.02061
G1 X177.755 Y70.458 E17.04817
G1 X178.23 Y71.247 E17.07574
G1 X178.645 Y72.097 E17.10405
G1 X178.765 Y72.374 E17.11309
G1 X179.093 Y73.234 E17.14064
G1 X179.347 Y74.119 E17.1682
G1 X179.527 Y75.06 E17.19688
G1 X179.564 Y75.314 E17.20456
G1 X179.67 Y76.512 E17.24056
G1 X179.68 Y76.833 E17.25018
G1 X179.685 Y77.163 E17.26006
G1 X179.684 Y148.607 E19.39867
G1 X179.674 Y149.334 E19.42044
G1 X179.593 Y150.503 E19.45551
G1 X179.565 Y150.727 E19.46227
G1 X179.411 Y151.634 E19.48981
G1 X179.179 Y152.525 E19.51737
G1 X178.923 Y153.263 E19.54075
G1 X178.806 Y153.563 E19.55039
G1 X178.434 Y154.406 E19.57797
G1 X177.991 Y155.213 E19.60553
G1 X177.397 Y156.089 E19.63721
G1 X177.275 Y156.251 E19.64328
G1 X176.69 Y156.961 E19.67082
G1 X176.045 Y157.619 E19.6984
G1 X175.345 Y158.219 E19.726
G1 X175.105 Y158.407 E19.73513
G1 X174.356 Y158.942 E19.76268
G1 X173.563 Y159.411 E19.79026
G1 X172.824 Y159.77 E19.81485
G1 X172.621 Y159.859 E19.82149
G1 X171.763 Y160.192 E19.84904
G1 X170.879 Y160.449 E19.87659
G1 X169.893 Y160.64 E19.90666
G1 X169.591 Y160.684 E19.91579
G1 X168.395 Y160.79 E19.95173
G1 X168.108 Y160.799 E19.96033
G1 X167.776 Y160.804 E19.97027
G1 X58.178 Y160.804 E23.25099
G1 X57.48 Y160.794 E23.27189
G1 X56.27 Y160.707 E23.3082
G1 X56.023 Y160.675 E23.31565
G1 X55.116 Y160.517 E23.34321
G1 X54.226 Y160.281 E23.37078
G1 X53.514 Y160.031 E23.39336
G1 X53.282 Y159.94 E23.40082
G1 X52.441 Y159.567 E23.42836
G1 X51.635 Y159.122 E23.45592
G1 X50.81 Y158.565 E23.48572
G1 X50.569 Y158.385 E23.49473
G1 X49.856 Y157.802 E23.52229
G1 X49.196 Y157.16 E23.54986
G1 X48.566 Y156.427 E23.57879
G1 X48.418 Y156.238 E23.58597
G1 X47.883 Y155.489 E23.61353
G1 X47.414 Y154.697 E23.64108
G1 X47.014 Y153.862 E23.66879
G1 X46.921 Y153.644 E23.67589
G1 X46.597 Y152.783 E23.70343
G1 X46.349 Y151.896 E23.731
G1 X46.187 Y151.046 E23.7569
G1 X46.141 Y150.737 E23.76625
G1 X46.03 Y149.515 E23.80298
G1 X46.021 Y149.234 E23.8114
G1 X46.016 Y148.895 E23.82155
G1 X46.016 Y77.361 E25.96285
G1 X46.026 Y76.69 E25.98294
G1 X46.11 Y75.505 E26.0185
G1 X46.139 Y75.278 E26.02535
G1 X46.296 Y74.37 E26.05294
G1 X46.53 Y73.48 E26.08048
G1 X46.797 Y72.723 E26.10451
G1 X46.901 Y72.46 E26.11298
G1 X47.276 Y71.619 E26.14054
G1 X47.723 Y70.815 E26.16808
G1 X48.265 Y70.016 E26.19698
G1 X48.439 Y69.783 E26.20568
G1 X49.021 Y69.069 E26.23326
G1 X49.663 Y68.41 E26.2608
G1 X50.035 Y68.094 E26.27541
G0 F1350 X50.484 Y67.712
G0 X50.651 Y67.584
G0 F7500 X50.894 Y67.901
G1 F1500 X51.634 Y67.384 E26.30243
G1 X52.418 Y66.935 E26.32947
G1 X53.022 Y66.647 E26.3495
G1 X53.272 Y66.538 E26.35767
G1 X54.115 Y66.214 E26.3847
G1 X54.984 Y65.966 E26.41175
G1 X55.832 Y65.801 E26.43761
G1 X56.118 Y65.758 E26.44627
G1 X57.308 Y65.65 E26.48204
G1 X57.62 Y65.64 E26.49138
G1 X57.947 Y65.635 E26.50117
G1 X167.371 Y65.635 E29.77668
G1 X168.215 Y65.646 E29.80195
G1 X169.345 Y65.725 E29.83586
G1 X169.583 Y65.755 E29.84304
G1 X170.097 Y65.833 E29.8586
G1 X170.978 Y66.029 E29.88562
G1 X172.069 Y66.39 E29.92002
G1 X172.297 Y66.48 E29.92736
G1 X173.122 Y66.849 E29.95441
G1 X173.91 Y67.289 E29.98143
G1 X174.661 Y67.799 E30.0086
G1 X174.891 Y67.971 E30.0172
G1 X175.589 Y68.544 E30.04423
G1 X176.234 Y69.176 E30.07126
G1 X176.765 Y69.791 E30.09558
G1 X176.901 Y69.962 E30.10212
G1 X177.431 Y70.693 E30.12915
G1 X177.895 Y71.468 E30.15619
G1 X178.277 Y72.256 E30.1824
G1 X178.397 Y72.533 E30.19144
G1 X178.719 Y73.377 E30.21848
G1 X178.966 Y74.246 E30.24552
G1 X179.131 Y75.118 E30.27209
G1 X179.168 Y75.372 E30.27977
G1 X179.27 Y76.524 E30.31439
G1 X179.28 Y76.845 E30.32401
G1 X179.285 Y77.163 E30.33353
G1 X179.284 Y148.601 E32.47196
G1 X179.274 Y149.328 E32.49372
G1 X179.196 Y150.453 E32.52748
G1 X179.168 Y150.677 E32.53424
G1 X179.017 Y151.567 E32.56126
G1 X178.787 Y152.441 E32.58831
G1 X178.55 Y153.118 E32.60978
G1 X178.433 Y153.418 E32.61942
G1 X178.068 Y154.244 E32.64646
G1 X177.631 Y155.035 E32.67351
G1 X177.078 Y155.848 E32.70294
G1 X176.956 Y156.01 E32.70901
G1 X176.381 Y156.707 E32.73606
G1 X175.747 Y157.35 E32.76309
G1 X175.098 Y157.904 E32.78863
G1 X174.858 Y158.092 E32.79776
G1 X174.123 Y158.617 E32.82479
G1 X173.345 Y159.074 E32.8518
G1 X172.664 Y159.404 E32.87446
G1 X172.461 Y159.493 E32.88109
G1 X171.618 Y159.818 E32.90814
G1 X170.75 Y160.068 E32.93517
G1 X169.836 Y160.244 E32.96304
G1 X169.534 Y160.288 E32.97217
G1 X168.383 Y160.39 E33.00676
G1 X168.096 Y160.399 E33.01536
G1 X167.776 Y160.404 E33.02494
G1 X58.184 Y160.404 E36.30548
G1 X57.486 Y160.394 E36.32637
G1 X56.321 Y160.31 E36.36134
G1 X56.074 Y160.278 E36.36879
G1 X55.185 Y160.123 E36.39581
G1 X54.313 Y159.889 E36.42283
G1 X53.66 Y159.659 E36.44356
G1 X53.428 Y159.568 E36.45102
G1 X52.603 Y159.201 E36.47804
G1 X51.813 Y158.763 E36.50508
G1 X51.049 Y158.244 E36.53273
G1 X50.808 Y158.064 E36.54174
G1 X50.109 Y157.492 E36.56877
G1 X49.464 Y156.861 E36.59578
G1 X48.881 Y156.181 E36.62259
G1 X48.733 Y155.992 E36.62978
G1 X48.208 Y155.257 E36.65682
G1 X47.751 Y154.478 E36.68385
G1 X47.382 Y153.705 E36.70949
G1 X47.289 Y153.487 E36.71659
G1 X46.972 Y152.642 E36.7436
G1 X46.731 Y151.772 E36.77063
G1 X46.582 Y150.987 E36.79455
G1 X46.536 Y150.678 E36.8039
G1 X46.43 Y149.503 E36.83921
G1 X46.421 Y149.222 E36.84763
G1 X46.416 Y148.895 E36.85742
G1 X46.416 Y77.367 E38.99855
G1 X46.426 Y76.696 E39.01863
G1 X46.507 Y75.555 E39.05287
G1 X46.536 Y75.328 E39.05972
G1 X46.69 Y74.439 E39.08673
G1 X46.922 Y73.566 E39.11377
G1 X47.169 Y72.87 E39.13588
G1 X47.273 Y72.607 E39.14435
G1 X47.642 Y71.783 E39.17137
G1 X48.082 Y70.994 E39.19841
G1 X48.585 Y70.255 E39.22517
G1 X48.759 Y70.022 E39.23388
G1 X49.331 Y69.323 E39.26091
G1 X49.963 Y68.677 E39.28797
G1 X50.277 Y68.41 E39.3003
G0 F1350 X50.727 Y68.029
G0 X50.894 Y67.901
G1 F1800 E31.3003
;MESH:Main_case.3mf
G0 F7500 X56.67 Y75.477
G0 X57.332 Y76.335
G0 X57.634 Y76.853
;TYPE:WALL-INNER
G1 F1800 E39.3003
G1 F1200 X57.712 Y76.835 E39.3027
G1 X167.991 Y76.835 E42.60381
G1 X168.066 Y76.854 E42.60612
G1 X168.085 Y76.935 E42.60861
G1 X168.085 Y149.116 E44.76929
G1 X168.068 Y149.186 E44.77144
G1 X167.988 Y149.205 E44.77391
G1 X57.713 Y149.205 E48.07489
G1 X57.635 Y149.185 E48.0773
G1 X57.615 Y149.104 E48.0798
G1 X57.615 Y77.651 E50.21868
G0 F1080 X57.615 Y76.927
G0 X57.634 Y76.853
G0 F7500 X57.427 Y76.49
G1 F1200 X57.665 Y76.435 E50.22599
G1 X168.043 Y76.435 E53.53006
G1 X168.283 Y76.496 E53.53747
G1 X168.428 Y76.643 E53.54365
G1 X168.485 Y76.887 E53.55116
G1 X168.485 Y149.164 E55.7147
G1 X168.426 Y149.402 E55.72204
G1 X168.283 Y149.546 E55.72812
G1 X168.035 Y149.605 E55.73575
G1 X57.664 Y149.605 E59.03961
G1 X57.416 Y149.543 E59.04726
G1 X57.275 Y149.4 E59.05327
G1 X57.215 Y149.154 E59.06085
G1 X57.215 Y77.22 E61.21413
G0 F1080 X57.215 Y76.878
G0 X57.275 Y76.639
G0 X57.427 Y76.49
G0 F7500 X57.223 Y76.142
;TYPE:WALL-OUTER
G1 F1200 X57.411 Y76.064 E61.22023
G1 X57.637 Y76.035 E61.22705
G1 X168.066 Y76.035 E64.53264
G1 X168.289 Y76.065 E64.53938
G1 X168.486 Y76.147 E64.54576
G1 X168.646 Y76.27 E64.55181
G1 X168.779 Y76.443 E64.55834
G1 X168.855 Y76.631 E64.56441
G1 X168.885 Y76.857 E64.57123
G1 X168.885 Y149.187 E66.73637
G1 X168.855 Y149.412 E66.74316
G1 X168.776 Y149.603 E66.74935
G1 X168.645 Y149.772 E66.75575
G1 X168.481 Y149.897 E66.76192
G1 X168.29 Y149.976 E66.76811
G1 X168.063 Y150.005 E66.77496
G1 X57.634 Y150.005 E70.08055
G1 X57.415 Y149.976 E70.08717
G1 X57.213 Y149.892 E70.09372
G1 X57.048 Y149.764 E70.09997
G1 X56.926 Y149.603 E70.10601
G1 X56.844 Y149.406 E70.1124
G1 X56.815 Y149.183 E70.11913
G1 X56.815 Y76.854 E72.28424
G1 X56.823 Y76.798 E72.28593
G0 F1080 X56.845 Y76.632
G0 X56.927 Y76.436
G0 X57.055 Y76.272
G0 X57.223 Y76.142
G0 F7500 X57.411 Y76.064
G0 X57.607 Y76.039
G0 X57.662 Y76.477
G0 X58.005 Y77.225
;TYPE:SKIN
G1 F1200 X167.695 Y77.225 E73.92767
G1 X167.695 Y148.815 E74.99916
G1 X58.005 Y148.815 E76.6409
G1 X58.005 Y78.025 E77.70042
G0 F1080 X58.005 Y77.225
G1 F1800 E69.70042
G0 F7500 X58.005 Y76.945
G0 X57.797 Y149.023
G0 X58.71 Y149.095
G0 X58.71 Y148.654
G1 F1800 E77.70042
G1 F1200 X58.164 Y148.108 E77.71197
G0 F7500 X58.164 Y147.542
G1 F1200 X59.276 Y148.654 E77.73551
G0 F7500 X59.841 Y148.654
G1 F1200 X58.164 Y146.977 E77.77101
G0 F7500 X58.164 Y146.411
G1 F1200 X60.407 Y148.654 E77.81848
G0 F7500 X60.973 Y148.654
G1 F1200 X58.164 Y145.845 E77.87794
G0 F7500 X58.164 Y145.28
G1 F1200 X61.538 Y148.654 E77.94936
G0 F7500 X62.104 Y148.654
G1 F1200 X58.164 Y144.714 E78.03275
G0 F7500 X58.164 Y144.148
G1 F1200 X62.67 Y148.654 E78.12813
G0 F7500 X63.235 Y148.654
G1 F1200 X58.164 Y143.582 E78.23548
G0 F7500 X58.164 Y143.017
G1 F1200 X63.801 Y148.654 E78.35479
G0 F7500 X64.367 Y148.654
G1 F1200 X58.164 Y142.451 E78.48609
G0 F7500 X58.164 Y141.885
G1 F1200 X64.932 Y148.654 E78.62936
G0 F7500 X65.498 Y148.654
G1 F1200 X58.164 Y141.32 E78.78459
G0 F7500 X58.164 Y140.754
G1 F1200 X66.064 Y148.654 E78.95181
G0 F7500 X66.629 Y148.654
G1 F1200 X58.164 Y140.188 E79.13099
G0 F7500 X58.164 Y139.623
G1 F1200 X67.195 Y148.654 E79.32215
G0 F7500 X67.761 Y148.654
G1 F1200 X58.164 Y139.057 E79.52529
G0 F7500 X58.164 Y138.491
G1 F1200 X68.327 Y148.654 E79.7404
G0 F7500 X68.892 Y148.654
G1 F1200 X58.164 Y137.926 E79.96748
G0 F7500 X58.164 Y137.36
G1 F1200 X69.458 Y148.654 E80.20653
G0 F7500 X70.024 Y148.654
G1 F1200 X58.164 Y136.794 E80.45757
G0 F7500 X58.164 Y136.229
G1 F1200 X70.589 Y148.654 E80.72056
G0 F7500 X71.155 Y148.654
G1 F1200 X58.164 Y135.663 E80.99554
G0 F7500 X58.164 Y135.097
G1 F1200 X71.721 Y148.654 E81.2825
G0 F7500 X72.286 Y148.654
G1 F1200 X58.164 Y134.532 E81.58141
G0 F7500 X58.164 Y133.966
G1 F1200 X72.852 Y148.654 E81.89231
G0 F7500 X73.418 Y148.654
G1 F1200 X58.164 Y133.4 E82.21518
G0 F7500 X58.164 Y132.834
G1 F1200 X73.983 Y148.654 E82.55003
G0 F7500 X74.549 Y148.654
G1 F1200 X58.164 Y132.269 E82.89684
G0 F7500 X58.164 Y131.703
G1 F1200 X75.115 Y148.654 E83.25564
G0 F7500 X75.68 Y148.654
G1 F1200 X58.164 Y131.137 E83.6264
G0 F7500 X58.164 Y130.572
G1 F1200 X76.246 Y148.654 E84.00914
G0 F7500 X76.812 Y148.654
G1 F1200 X58.164 Y130.006 E84.40385
G0 F7500 X58.164 Y129.44
G1 F1200 X77.377 Y148.654 E84.81054
G0 F7500 X77.943 Y148.654
G1 F1200 X58.164 Y128.875 E85.22919
G0 F7500 X58.164 Y128.309
G1 F1200 X78.509 Y148.654 E85.65983
G0 F7500 X79.075 Y148.654
G1 F1200 X58.164 Y127.743 E86.10244
G0 F7500 X58.164 Y127.178
G1 F1200 X79.64 Y148.654 E86.55702
G0 F7500 X80.206 Y148.654
G1 F1200 X58.164 Y126.612 E87.02357
G0 F7500 X58.164 Y126.046
G1 F1200 X80.772 Y148.654 E87.50211
G0 F7500 X81.337 Y148.654
G1 F1200 X58.164 Y125.481 E87.9926
G0 F7500 X58.164 Y124.915
G1 F1200 X81.903 Y148.654 E88.49507
G0 F7500 X82.469 Y148.654
G1 F1200 X58.164 Y124.349 E89.00953
G0 F7500 X58.164 Y123.783
G1 F1200 X83.034 Y148.654 E89.53595
G0 F7500 X83.6 Y148.654
G1 F1200 X58.164 Y123.218 E90.07435
G0 F7500 X58.164 Y122.652
G1 F1200 X84.166 Y148.654 E90.62472
G0 F7500 X84.731 Y148.654
G1 F1200 X58.164 Y122.086 E91.18707
G0 F7500 X58.164 Y121.521
G1 F1200 X85.297 Y148.654 E91.76138
G0 F7500 X85.863 Y148.654
G1 F1200 X58.164 Y120.955 E92.34767
G0 F7500 X58.164 Y120.389
G1 F1200 X86.428 Y148.654 E92.94594
G0 F7500 X86.994 Y148.654
G1 F1200 X58.164 Y119.824 E93.55617
